X: 22199
T: La Bounette
R: barndance
M: 4/4
K: Gmixolydian
d3 c B2 e2|d3 c B2 d2|e2 d2 c2 B2|A4 G2 g2|f2 d2 e2 c2|d2 B2 c2 A2|
B2 AG ^F G2 F|G4 G4:|:d2 dd e2 f2|g2 fe d2 g2|f2 d2 e2 c2|d2 cB A2 d2|
c2 e2 d2 f2|e2 g2 f2 ed|^c2 d4 c2|d4 d4:|:B2 B2 c2 e2|d3 c B2 G2|
A2 B2 c2 A2|B2 G2 G2 ^F2|G3 d e2 ^f2|g2 d2 B2 AG|^F2 G4 F2|G4 G4:|

